X: 21323
M: 6/8
L: 1/8
K: G
!f![|\
({B^c}d3 B)dg | f3 e3- | eAB c2e | dGA (Bc^c) |\
d3 Bdg | f3 ec'b | a>gf agf | g3- g2z H|]
!p!d2z c2z | B2z Aed | cBA Ggf | edc c2z |\
c2z e2z | g3 (fe)d | (e2g) (c2e) | TG3- G2z |\
c2z e2z | g2z (fe).d | fed agB | (d3 "^D.C."c3) |]


